X:3
T:1st Cello Suite, 3 - Courante
C:J.S. Bach
N:
L:1/8
Q:1/4=88
M:3/4
K:D
|:d | dA Df/g/ a/g/f/e/ | fA Dd/e/ fd | BG G,e/f/ g/f/e/d/ | cA A,A/B/ c/d/e/f/ | 
g/f/g/e/ g/f/g/e/ A/g/f/e/ | f/e/f/e/ f/e/f/d/ G/f/e/d/ | c/e/a/A/ dF A,c | [d3D3]f/e/ d/c/B/A/ | 
b^g ef/g/ a/c/B/A/ | Ea ^gf/e/ a/e/f/e/ | d/c/d/B/ d/c/d/B/ E/d/c/B/ | c/B/c/A/ c/B/c/A/ D/c/B/A/ | 
a/^g/f/e/ ag/f/ e/d/c/B/ | A/B/A/c/ A/B/A/d/ A/B/A/e/ | A/B/A/f/ A/B/A/^g/ A/B/A/a/ | 
d/c/B/A/ ^G/F/E/d/ c3/2B/ | e/d/f/e/ d/c/B/A/ E^G | A,4 z2 :|:e | ec AB/c/ d/c/B/A/ | 
ac GF/G/ A/G/F/E/ | F/d/e/f/ g/f/e/d/ ca | fd Df/e/ g/f/e/d/ | ec ^A/e/f/g/ f/e/d/c/ | 
dB B,d/c/ e/d/c/B/ | =c/B/c/e/ c/B/c/e/ g/f/g/e/ | ^a2 z/g/f/e/ d/c/e/^A/ | Df e/d/c/B/ F^A | 
B,3B/c/ d/e/f/g/ | a=c FB/c/ d/c/B/A/ | BG G,G/A/ B/c/d/B/ | ^G/d/e/d/ e/d/G/d/ G/d/e/d/ | 
G/c/e/c/ e/c/G/c/ G/c/e/c/ | F/A/B/=c/ D/c/B/A/ B/a/g/f/ | c/e/f/g/ A/g/f/e/ fD | 
G,f/e/ g/f/e/d/ Ac | D/E/D/F/ D/E/D/G/ D/E/D/A/ | D/E/D/B/ D/E/D/c/ D/E/D/d/ | 
g/f/e/d/ c/B/A/g/ f3/2e/ | a/g/a/f/ a/g/a/f/ B/a/g/f/ | g/f/g/e/ g/f/g/e/ A/g/f/e/ | 
f/e/f/d/ G/f/e/d/ Ac | [d4D4] z2 :| 
 

